;FLAVOR:Marlin
;TIME:6918
;Filament used: 6.85216m, 0m
;Layer height: 0.2
;MINX:106.776
;MINY:119.235
;MINZ:0.2
;MAXX:193.224
;MAXY:180.701
;MAXZ:20.8
;Generated with Cura_SteamEngine 4.8.8
T0
M140 S60
M105
M190 S60
M104 S195
M105
M109 S195
M82 ;absolute extrusion mode
G28 X0 Y0 ;move X/Y to min endstops
G28 Z0 ;move Z to min endstops
G1 Z15.0 F600 ;move the platform down 15.0mm
G21 ;metric values
G90 ;absolute positioning
M82 ;set extruder to absolute mode
M107 ;start with the fan off
T1 ;Switch to the 2nd extruder
G92 E0 ;zero the extruded length
G1 F200 E12 ;extrude 12 mm of feed stock
G92 E0 ;zero the extruded length again
G1 F200 E-16
T0 ;Switch to the 1st extruder
G92 E0 ;zero the extruded length
G1 F200 E12 ;extrude 12 mm of feed stock
G92 E0 ;zero the extruded length again
G1 F3600
M117 Printing...
M141 S28
G92 E0
G92 E0
G1 F1500 E-4.5
;LAYER_COUNT:104
;LAYER:0
M107
M204 S250
M205 X10 Y10
G1 F600 Z2.2
G0 F1440 X112.074 Y173.343 Z2.2
M205 X5 Y5
;TYPE:SKIRT
G1 F600 Z0.2
G1 F1500 E0
G1 F900 X111.614 Y171.569 E0.07315
G1 X111.007 Y168.903 E0.18227
G1 X110.326 Y166.264 E0.29105
G1 X109.562 Y163.608 E0.40136
G1 X108.735 Y161.016 E0.50995
G1 X107.429 Y157.359 E0.66494
G1 X106.862 Y155.749 E0.73306
G1 X106.777 Y154.206 E0.79474
G1 X106.776 Y126.462 E1.90206
G1 X106.834 Y125.269 E1.94974
G1 X107.161 Y124.309 E1.99021
G1 X107.667 Y123.602 E2.02491
G1 X108.427 Y122.796 E2.06913
G1 X109.729 Y121.474 E2.14319
G1 X111.059 Y120.159 E2.21783
G1 X111.889 Y119.576 E2.25832
G1 X112.858 Y119.277 E2.29879
G1 X113.795 Y119.235 E2.33623
G1 X185.39 Y119.235 E5.19374
G1 X186.586 Y119.293 E5.24153
G1 X187.546 Y119.62 E5.28201
G1 X188.319 Y120.189 E5.32032
G1 X189.684 Y121.542 E5.39702
G1 X190.384 Y122.227 E5.43611
G1 X191.826 Y123.669 E5.51751
G1 X192.609 Y124.532 E5.56401
G1 X193.056 Y125.442 E5.60448
G1 X193.219 Y126.519 E5.64796
G1 X193.224 Y126.899 E5.66312
G1 X193.224 Y172.898 E7.49904
G1 X193.167 Y174.107 E7.54735
G1 X192.839 Y175.067 E7.58784
G1 X192.149 Y175.972 E7.63326
G1 X191.968 Y176.157 E7.64359
G1 X190.347 Y177.778 E7.73509
G1 X189.311 Y178.795 E7.79303
G1 X188.304 Y179.773 E7.84906
G1 X187.475 Y180.357 E7.88953
G1 X186.506 Y180.656 E7.93
G1 X185.466 Y180.701 E7.97155
G1 X121.102 Y180.7 E10.54046
G1 X119.912 Y180.642 E10.58801
G1 X118.952 Y180.315 E10.62849
G1 X118.04 Y179.634 E10.67392
G1 X117.765 Y179.364 E10.6893
G1 X113.742 Y175.34 E10.9164
G1 X112.637 Y174.186 E10.98017
G1 X112.074 Y173.343 E11.02063
M205 X10 Y10
G1 F1500 E6.52063
G1 F600 Z2.2
;MESH:DIN esp32 etc....stl
G0 F1440 X137.051 Y154.978 Z2.2
M205 X5 Y5
;TYPE:WALL-INNER
G1 F600 Z0.2
G1 F1500 E11.02063
G1 F900 X138.299 Y155.553 E11.06725
G1 X138.759 Y156.039 E11.08995
G1 X138.21 Y155.698 E11.09437
G1 X137.051 Y154.978 E11.10397
M205 X10 Y10
G0 F1440 X134.558 Y153.651
G0 X135.116 Y153.038
G0 X137.052 Y153.912
G0 X138.825 Y147.099
M205 X5 Y5
G1 F900 X138.71 Y146.841 E11.11355
G1 X139.986 Y145.367 E11.17969
G1 X138.909 Y146.974 E11.19886
G1 X138.825 Y147.099 E11.19935
M205 X10 Y10
G0 F1440 X182.143 Y123.731
M205 X5 Y5
G1 F900 X181.04 Y124.156 E11.23945
G1 X180.268 Y124.886 E11.2755
G1 X179.876 Y125.757 E11.3079
G1 X179.789 Y126.828 E11.34436
G1 X180.249 Y128.036 E11.38821
G1 X180.872 Y128.661 E11.41815
G1 X181.677 Y129.086 E11.44903
G1 X182.58 Y129.214 E11.47997
G1 X183.488 Y129.041 E11.51133
G1 X184.376 Y128.49 E11.54678
G1 X184.897 Y127.795 E11.57625
G1 X185.192 Y126.994 E11.60521
G1 X185.236 Y126.075 E11.63642
G1 X184.816 Y124.983 E11.67611
G1 X184.125 Y124.248 E11.71034
G1 X183.223 Y123.818 E11.74424
G1 X182.143 Y123.731 E11.781
M205 X10 Y10
G0 F1440 X182.208 Y124.182
M205 X5 Y5
;TYPE:WALL-OUTER
G1 F900 X181.281 Y124.539 E11.82064
G1 X180.637 Y125.148 E11.85602
G1 X180.312 Y125.869 E11.88759
G1 X180.24 Y126.764 E11.92342
G1 X180.63 Y127.79 E11.96723
G1 X181.139 Y128.3 E11.99599
G1 X181.816 Y128.657 E12.02654
G1 X182.569 Y128.764 E12.05689
G1 X183.324 Y128.62 E12.08757
G1 X184.071 Y128.157 E12.12265
G1 X184.503 Y127.581 E12.15138
G1 X184.752 Y126.905 E12.18013
G1 X184.788 Y126.147 E12.21042
G1 X184.433 Y125.224 E12.24989
G1 X183.859 Y124.613 E12.28335
G1 X183.106 Y124.254 E12.31665
G1 X182.208 Y124.182 E12.3526
M205 X10 Y10
G0 F1440 X182.022 Y124.253
G0 X181.834 Y123.761
G0 X181.113 Y124.268
G0 X180.451 Y124.894
G0 X177.763 Y130.587
M205 X5 Y5
;TYPE:WALL-INNER
G1 F900 X177.211 Y129.611 E12.39064
G1 X176.43 Y128.96 E12.42514
G1 X175.403 Y128.66 E12.46143
G1 X174.396 Y128.744 E12.49571
G1 X173.67 Y129.061 E12.52259
G1 X172.874 Y129.817 E12.55983
G1 X172.487 Y130.718 E12.5931
G1 X172.4 Y131.671 E12.62557
G1 X172.739 Y132.686 E12.66187
G1 X173.348 Y133.471 E12.69558
G1 X174.245 Y133.942 E12.72995
G1 X175.174 Y134.11 E12.76197
G1 X176.131 Y133.936 E12.79497
G1 X176.943 Y133.422 E12.82758
G1 X177.551 Y132.686 E12.85996
G1 X177.849 Y131.662 E12.89614
G1 X177.763 Y130.587 E12.93273
M205 X10 Y10
G0 F1440 X177.328 Y130.72
M205 X5 Y5
;TYPE:WALL-OUTER
G1 F900 X176.864 Y129.9 E12.97033
G1 X176.217 Y129.36 E13.00397
G1 X175.358 Y129.109 E13.03969
G1 X174.506 Y129.18 E13.07381
G1 X173.919 Y129.437 E13.09939
G1 X173.246 Y130.076 E13.13643
G1 X172.923 Y130.828 E13.16909
G1 X172.851 Y131.619 E13.20079
G1 X173.136 Y132.474 E13.23676
G1 X173.64 Y133.123 E13.26956
G1 X174.391 Y133.517 E13.30341
G1 X175.174 Y133.659 E13.33517
G1 X175.967 Y133.515 E13.36734
G1 X176.646 Y133.085 E13.39941
G1 X177.15 Y132.474 E13.43103
G1 X177.4 Y131.616 E13.4667
G1 X177.328 Y130.72 E13.50257
M205 X10 Y10
G0 F1440 X177.23 Y130.546
G0 X177.689 Y130.287
G0 X177.902 Y150.211
G0 X177.781 Y151.234
M205 X5 Y5
;TYPE:WALL-INNER
G1 F900 X178.033 Y150.229 E13.53772
G1 X178.033 Y149.58 E13.55974
G1 X177.694 Y148.604 E13.59479
G1 X176.892 Y147.719 E13.63531
G1 X175.987 Y147.331 E13.66872
G1 X175.11 Y147.244 E13.69861
G1 X174.084 Y147.542 E13.73486
G1 X173.245 Y148.214 E13.77133
G1 X172.757 Y149.012 E13.80306
G1 X172.589 Y150.193 E13.84353
G1 X172.892 Y151.231 E13.88021
G1 X173.535 Y152.047 E13.91546
G1 X174.437 Y152.562 E13.9507
G1 X175.359 Y152.69 E13.98228
G1 X176.122 Y152.599 E14.00834
G1 X177.052 Y152.09 E14.04431
G1 X177.781 Y151.234 E14.08245
M205 X10 Y10
G0 F1440 X177.376 Y151.025
M205 X5 Y5
;TYPE:WALL-OUTER
G1 F900 X177.589 Y150.174 E14.11747
G1 X177.589 Y149.655 E14.13818
G1 X177.304 Y148.835 E14.17283
G1 X176.628 Y148.089 E14.21301
G1 X175.875 Y147.766 E14.24571
G1 X175.152 Y147.694 E14.27471
G1 X174.293 Y147.944 E14.31042
G1 X173.583 Y148.512 E14.34671
G1 X173.184 Y149.165 E14.37725
G1 X173.042 Y150.161 E14.41741
G1 X173.294 Y151.024 E14.45329
G1 X173.83 Y151.704 E14.48785
G1 X174.583 Y152.134 E14.52246
G1 X175.363 Y152.242 E14.55388
G1 X175.984 Y152.168 E14.57885
G1 X176.767 Y151.74 E14.61446
G1 X177.376 Y151.025 E14.65195
M205 X10 Y10
G0 F1440 X177.424 Y150.831
G0 X177.936 Y150.96
G0 X179.028 Y172.213
M205 X5 Y5
;TYPE:WALL-INNER
G1 F900 X178.768 Y173.248 E14.68815
G1 X178.854 Y174.227 E14.72149
G1 X179.286 Y175.092 E14.75429
G1 X180.057 Y175.82 E14.79027
G1 X181.022 Y176.156 E14.82493
G1 X181.795 Y176.2 E14.8512
G1 X182.731 Y175.875 E14.88481
G1 X183.321 Y175.512 E14.90831
G1 X183.969 Y174.648 E14.94495
G1 X184.222 Y173.465 E14.98599
G1 X184.01 Y172.445 E15.02134
G1 X183.567 Y171.694 E15.05092
G1 X182.758 Y171.055 E15.08589
G1 X181.785 Y170.758 E15.12041
G1 X180.821 Y170.803 E15.15315
G1 X179.798 Y171.313 E15.19192
G1 X179.028 Y172.213 E15.23211
M205 X10 Y10
G0 F1440 X179.433 Y172.422
M205 X5 Y5
;TYPE:WALL-OUTER
G1 F900 X179.217 Y173.284 E15.26757
G1 X179.289 Y174.104 E15.30043
G1 X179.648 Y174.823 E15.3325
G1 X180.293 Y175.432 E15.36791
G1 X181.109 Y175.716 E15.40239
G1 X181.733 Y175.752 E15.42734
G1 X182.539 Y175.472 E15.4614
G1 X183.016 Y175.178 E15.48376
G1 X183.555 Y174.46 E15.51959
G1 X183.768 Y173.464 E15.56024
G1 X183.59 Y172.607 E15.59518
G1 X183.227 Y171.991 E15.62372
G1 X182.548 Y171.455 E15.65824
G1 X181.729 Y171.205 E15.69242
G1 X180.935 Y171.242 E15.72414
G1 X180.077 Y171.67 E15.76241
G1 X179.433 Y172.422 E15.80193
M205 X10 Y10
G0 F1440 X179.385 Y172.616
G0 X178.873 Y172.487
G0 X173.112 Y166.437
G0 X172.703 Y165.702
G0 X172.58 Y164.365
G0 X172.866 Y163.545
G0 X173.515 Y162.564
M205 X5 Y5
;TYPE:WALL-INNER
G1 F900 X172.782 Y163.385 E15.83927
G1 X172.451 Y164.337 E15.87346
G1 X172.406 Y165.049 E15.89766
G1 X172.581 Y165.75 E15.92217
G1 X173.01 Y166.524 E15.9522
G1 X173.857 Y167.201 E15.98898
G1 X174.843 Y167.501 E16.02395
G1 X175.918 Y167.415 E16.06053
G1 X176.861 Y166.9 E16.09698
G1 X177.549 Y166.085 E16.13317
G1 X177.849 Y165.057 E16.1695
G1 X177.762 Y163.983 E16.20605
G1 X177.288 Y163.123 E16.23937
G1 X176.603 Y162.478 E16.27129
G1 X175.623 Y162.095 E16.30698
G1 X174.583 Y162.095 E16.34226
G1 X173.515 Y162.564 E16.38184
M205 X10 Y10
G0 F1440 X173.782 Y162.932
M205 X5 Y5
;TYPE:WALL-OUTER
G1 F900 X173.172 Y163.615 E16.41839
G1 X172.89 Y164.426 E16.45266
G1 X172.853 Y165.008 E16.47593
G1 X172.998 Y165.586 E16.49972
G1 X173.356 Y166.232 E16.52919
G1 X174.068 Y166.801 E16.56557
G1 X174.892 Y167.052 E16.59995
G1 X175.788 Y166.98 E16.63583
G1 X176.575 Y166.55 E16.67162
G1 X177.149 Y165.87 E16.70714
G1 X177.4 Y165.011 E16.74286
G1 X177.327 Y164.114 E16.77878
G1 X176.933 Y163.398 E16.81139
G1 X176.361 Y162.86 E16.84273
G1 X175.539 Y162.539 E16.87796
G1 X174.676 Y162.539 E16.9124
G1 X173.782 Y162.932 E16.95138
M205 X10 Y10
G0 F1440 X173.649 Y163.081
G0 X173.255 Y162.728
G0 X130.95 Y167.414
M205 X5 Y5
;TYPE:WALL-INNER
G1 F900 X131.917 Y166.867 E16.98907
G1 X132.537 Y166.159 E17.02099
G1 X132.876 Y165.061 E17.05998
G1 X132.789 Y164.024 E17.09528
G1 X132.32 Y163.128 E17.12959
G1 X131.621 Y162.471 E17.16214
G1 X130.596 Y162.103 E17.19908
G1 X129.854 Y162.056 E17.22431
G1 X128.848 Y162.391 E17.26028
G1 X128.076 Y162.993 E17.29349
G1 X127.596 Y163.821 E17.32596
G1 X127.428 Y164.788 E17.35926
G1 X127.559 Y165.619 E17.3878
G1 X128.025 Y166.51 E17.42191
G1 X128.849 Y167.204 E17.45846
G1 X129.91 Y167.501 E17.49584
G1 X130.95 Y167.414 E17.53124
M205 X10 Y10
G0 F1440 X130.816 Y166.98
M205 X5 Y5
;TYPE:WALL-OUTER
G1 F900 X131.633 Y166.518 E17.5687
G1 X132.141 Y165.938 E17.59947
G1 X132.426 Y165.012 E17.63814
G1 X132.354 Y164.15 E17.67267
G1 X131.961 Y163.4 E17.70646
G1 X131.384 Y162.858 E17.73806
G1 X130.505 Y162.542 E17.77534
G1 X129.912 Y162.505 E17.79905
G1 X129.061 Y162.788 E17.83485
G1 X128.417 Y163.29 E17.86744
G1 X128.02 Y163.975 E17.89904
G1 X127.878 Y164.792 E17.93213
G1 X127.986 Y165.478 E17.95985
G1 X128.378 Y166.227 E17.99359
G1 X129.061 Y166.802 E18.02923
G1 X129.953 Y167.052 E18.0662
G1 X130.816 Y166.98 E18.10076
M205 X10 Y10
G0 F1440 X130.99 Y166.882
G0 X131.249 Y167.341
G0 X142.78 Y162.148
M205 X5 Y5
;TYPE:WALL-INNER
G1 F900 X143.161 Y161.149 E18.13704
G1 X143.253 Y160.699 E18.15262
G1 X143.171 Y160.65 E18.15586
G1 X143.259 Y160.513 E18.16138
G1 X143.04 Y160.372 E18.17022
G1 X142.848 Y160.249 E18.17796
G1 X142.994 Y160.073 E18.1828
G1 X143.278 Y159.731 E18.19789
G1 X142.943 Y159.452 E18.21268
G1 X142.768 Y159.306 E18.22041
G1 X142.933 Y159.15 E18.22523
G1 X143.281 Y158.82 E18.2415
G1 X143.012 Y158.535 E18.25479
G1 X142.997 Y158.519 E18.25554
G1 X143.28 Y158.281 E18.26463
G1 X143.177 Y158.159 E18.27005
G1 X143.303 Y158.033 E18.2761
G1 X143.229 Y157.942 E18.28007
G1 X143.294 Y157.893 E18.28284
G1 X143.216 Y157.792 E18.28505
G1 X143.292 Y157.734 E18.28611
G1 X143.128 Y157.521 E18.29207
G1 X143.269 Y157.419 E18.29798
G1 X143.229 Y157.363 E18.30031
G1 X143.305 Y157.31 E18.30346
G1 X143.06 Y156.877 E18.32033
G1 X143.261 Y156.747 E18.32845
G1 X143.073 Y156.329 E18.344
G1 X143.315 Y156.169 E18.35385
G1 X139.514 Y149.832 E18.60454
G1 X143.274 Y143.627 E18.85068
G1 X143.227 Y143.599 E18.85253
G1 X143.291 Y143.495 E18.85668
G1 X143.147 Y143.405 E18.86244
G1 X143.26 Y143.182 E18.87092
G1 X143.147 Y143.109 E18.87548
G1 X143.264 Y142.934 E18.88262
G1 X142.713 Y142.565 E18.90512
G1 X142.712 Y142.564 E18.90517
G1 X142.522 Y142.437 E18.91292
G1 X142.672 Y142.264 E18.91777
G1 X143.258 Y141.587 E18.94815
G1 X143.128 Y141.436 E18.9549
G1 X143.278 Y141.185 E18.96482
G1 X143.223 Y141.118 E18.96777
G1 X143.336 Y141.002 E18.97326
G1 X143.121 Y140.794 E18.98341
G1 X143.333 Y140.47 E18.99654
G1 X142.417 Y139.457 E19.04288
G1 X138.723 Y142.794 E19.21176
G1 X137.212 Y141.635 E19.27636
G1 X136.343 Y142.641 E19.32146
G1 X136.484 Y142.836 E19.32963
G1 X136.371 Y143.036 E19.33742
G1 X136.504 Y143.167 E19.34375
G1 X136.39 Y143.371 E19.35168
G1 X136.479 Y143.478 E19.3564
G1 X136.414 Y143.589 E19.36077
G1 X136.415 Y143.731 E19.36558
G1 X136.908 Y144.42 E19.39433
G1 X137.052 Y144.622 E19.40274
G1 X136.825 Y144.723 E19.40791
G1 X136.361 Y144.929 E19.42513
G1 X136.468 Y145.17 E19.43408
G1 X136.406 Y145.196 E19.43636
G1 X136.544 Y145.736 E19.45527
G1 X136.501 Y146.047 E19.46592
G1 X137.7 Y149.296 E19.58341
G1 X137.701 Y149.297 E19.58345
G1 X137.825 Y149.637 E19.59573
G1 X137.47 Y149.567 E19.60265
G1 X137.469 Y149.566 E19.6027
G1 X135.035 Y149.076 E19.68693
G1 X135.034 Y149.075 E19.68698
G1 X134.832 Y149.035 E19.69397
G1 X134.797 Y149.239 E19.69847
G1 X134.561 Y150.59 E19.745
G1 X134.635 Y150.61 E19.7476
G1 X134.598 Y151.228 E19.7686
G1 X134.635 Y151.244 E19.76997
G1 X134.65 Y151.251 E19.77053
G1 X134.504 Y151.542 E19.77825
G1 X134.636 Y151.609 E19.78327
G1 X134.549 Y151.784 E19.7899
G1 X134.807 Y151.919 E19.79978
G1 X134.606 Y152.333 E19.81539
G1 X134.593 Y152.361 E19.81644
G1 X134.699 Y152.413 E19.82045
G1 X134.561 Y152.702 E19.83131
G1 X134.589 Y152.715 E19.83236
G1 X134.768 Y152.801 E19.8391
G1 X134.343 Y153.729 E19.87372
G1 X134.692 Y153.89 E19.88676
G1 X134.667 Y153.93
G1 X134.14 Y154.776 E19.92058
G1 X134.353 Y154.91 E19.92911
G1 X134.548 Y155.031 E19.9369
G1 X134.403 Y155.209 E19.94176
G1 X134.12 Y155.558 E19.95701
G1 X134.215 Y155.635 E19.96116
G1 X134.118 Y155.749 E19.96623
G1 X134.215 Y155.832 E19.97056
G1 X134.133 Y155.923 E19.97472
G1 X134.305 Y156.078 E19.98257
G1 X134.371 Y156.392 E19.99346
G1 X138.344 Y160.211 E20.18042
G1 X142.501 Y162.258 E20.33762
G1 X142.701 Y162.356 E20.34517
G1 X142.78 Y162.148 E20.34992
M205 X10 Y10
G0 F1440 X142.46 Y161.742
M205 X5 Y5
;TYPE:WALL-OUTER
G1 F900 X142.553 Y161.497 E20.36038
G1 X142.656 Y161.228 E20.37188
G1 X142.596 Y161.153 E20.37571
G1 X142.659 Y161.04 E20.38088
G1 X142.564 Y160.987 E20.38522
G1 X142.644 Y160.853 E20.39145
G1 X142.55 Y160.797 E20.39276
G1 X142.646 Y160.647 E20.39987
G1 X142.32 Y160.438 E20.41533
G1 X142.211 Y160.368 E20.4205
G1 X140.611 Y159.339 E20.49642
G1 X138.84 Y158.199 E20.58048
G1 X136.269 Y156.114 E20.7126
G1 X135.15 Y155.206 E20.77012
G1 X135.046 Y155.122 E20.77545
G1 X134.744 Y155.494 E20.79458
G1 X134.847 Y155.578 E20.79987
G1 X134.743 Y155.7 E20.80627
G1 X134.849 Y155.791 E20.81184
G1 X134.76 Y155.89 E20.81716
G1 X134.82 Y155.944 E20.82038
G1 X134.76 Y156.081 E20.82635
G1 X134.778 Y156.167 E20.82985
G1 X138.602 Y159.843 E21.04156
G1 X142.225 Y161.626 E21.20273
G1 X142.46 Y161.742 E21.20932
M205 X10 Y10
G0 F1440 X142.53 Y161.555
G0 X143.024 Y161.744
G0 X138.421 Y160.103
G0 X134.491 Y156.324
G0 X124.132 Y127.989
G0 X123.686 Y126.977
G0 X122.499 Y126.076
G0 X120.791 Y125.861
M205 X5 Y5
;TYPE:WALL-INNER
G1 F900 X119.77 Y126.455 E21.2494
G1 X119.15 Y127.208 E21.28249
G1 X118.856 Y128.298 E21.32079
G1 X118.943 Y129.343 E21.35636
G1 X119.584 Y130.412 E21.39865
G1 X120.7 Y131.135 E21.44376
G1 X121.822 Y131.264 E21.48208
G1 X122.895 Y130.922 E21.52028
G1 X123.791 Y130.154 E21.56032
G1 X124.263 Y129.079 E21.60015
G1 X124.263 Y127.962 E21.63804
G1 X123.796 Y126.9 E21.6774
G1 X123.192 Y126.339 E21.70537
G1 X122.546 Y125.951 E21.73093
G1 X121.837 Y125.818 E21.7554
